icons/bin-outline.svg

<svg xmlns="http://www.w3.org/2000/svg" width="24" height="24" viewBox="0 0 24 24">
  <path d="M18,8 C18.5128358,8 18.9355072,8.38604019 18.9932723,8.88337887 L19,9 L19,19 C19,20.5976809 17.75108,21.9036609 16.1762728,21.9949073 L16,22 L8,22 C6.40231912,22 5.09633912,20.75108 5.00509269,19.1762728 L5,19 L5,9 C5,8.48716416 5.38604019,8.06449284 5.88337887,8.00672773 L6,8 L18,8 Z M17,10 L7,10 L7,19 C7,19.4733869 7.32893365,19.8699473 7.77070917,19.9735893 L7.88337887,19.9932723 L8,20 L16,20 C16.5128358,20 16.9355072,19.6139598 16.9932723,19.1166211 L17,19 L17,10 Z M4,7 C3.44771525,7 3,6.55228475 3,6 C3,5.48716416 3.38604019,5.06449284 3.88337887,5.00672773 L4,5 L8,5 C8,3.40231912 9.24891996,2.09633912 10.8237272,2.00509269 L11,2 L13,2 C14.5976809,2 15.9036609,3.24891996 15.9949073,4.82372721 L16,5 L20,5 C20.5522847,5 21,5.44771525 21,6 C21,6.51283584 20.6139598,6.93550716 20.1166211,6.99327227 L20,7 L4,7 Z M13,4 L11,4 C10.4871642,4 10.0644928,4.38604019 10.0067277,4.88337887 L10,5 L14,5 C14,4.48716416 13.6139598,4.06449284 13.1166211,4.00672773 L13,4 Z"/>
</svg>

<svg xmlns="http://www.w3.org/2000/svg" viewBox="0 0 24 24">
  <path d="M18 8a1 1 0 0 1 1 .88V19a3 3 0 0 1-2.82 3H8a3 3 0 0 1-3-2.82V9a1 1 0 0 1 .88-1H18zm-1 2H7v9a1 1 0 0 0 .77.97l.11.02L8 20h8a1 1 0 0 0 1-.88V10zM4 7a1 1 0 0 1-.12-2H8a3 3 0 0 1 2.82-3H13a3 3 0 0 1 3 2.82V5h4a1 1 0 0 1 .12 2H4zm9-3h-2a1 1 0 0 0-1 .88V5h4a1 1 0 0 0-.88-1H13z"/>
</svg>
